X: 8
T: I Looked East And I Looked West
R: polka
M: 2/4
L: 1/8
K: Gmaj
|:GB BA/G/|FA AB/A/|GA Bc|cd cA|
GB BA/G/|FA A>B|cA FA|1 G2 GD:|2 G2 GB/c/||
|:dg fe|fA A>B|cd ef|g2 fe|
dg fe|fA A>B|cA FA|1 G2 GB/c/:|2 G2 GD||

